src/cui/assets/icons/checkmark.svg

<svg fill="none" height="16" viewBox="0 0 16 16" width="16" xmlns="http://www.w3.org/2000/svg" xmlns:xlink="http://www.w3.org/1999/xlink"><clipPath id="a"><path d="m0 0h16v16h-16z"/></clipPath><g clip-path="url(#a)"><path d="m6.57333 11.9999c-.09141-.0003-.18179-.0193-.26551-.056s-.159-.0903-.22116-.1573l-3.24-3.44666c-.12111-.12907-.18599-.30097-.18037-.47788.00563-.17691.0813-.34434.21037-.46545.12907-.12112.30097-.186.47788-.18037.17691.00562.34434.08129.46546.21037l2.74666 2.92669 5.60664-6.13336c.0569-.07085.1277-.12932.208-.17182s.1685-.06814.2591-.07533.1817.00422.2677.03352.1651.07587.2325.13686c.0673.06099.1215.13511.1592.2178s.058.17221.0599.26306c.0018.09085-.015.18112-.0493.26525-.0344.08413-.0855.16036-.1504.22399l-6.09334 6.66663c-.06157.0683-.13659.123-.22034.1609s-.17442.058-.26632.0591z" fill="#fff"/></g></svg>

<svg width="16" height="16" viewBox="0 0 16 16" fill="none" xmlns="http://www.w3.org/2000/svg">
<g clip-path="url(#clip0_2304_2280)">
<path d="M6.57333 11.9999C6.48192 11.9996 6.39154 11.9806 6.30782 11.9439C6.2241 11.9072 6.14882 11.8536 6.08666 11.7866L2.84666 8.33994C2.72555 8.21087 2.66067 8.03897 2.66629 7.86206C2.67192 7.68515 2.74759 7.51772 2.87666 7.39661C3.00573 7.27549 3.17763 7.21061 3.35454 7.21624C3.53145 7.22186 3.69888 7.29753 3.82 7.42661L6.56666 10.3533L12.1733 4.21994C12.2302 4.14909 12.301 4.09062 12.3813 4.04812C12.4616 4.00562 12.5498 3.97998 12.6404 3.97279C12.731 3.9656 12.8221 3.97701 12.9081 4.00631C12.9941 4.03561 13.0732 4.08218 13.1406 4.14317C13.2079 4.20416 13.2621 4.27828 13.2998 4.36097C13.3375 4.44366 13.3578 4.53318 13.3597 4.62403C13.3615 4.71488 13.3447 4.80515 13.3104 4.88928C13.276 4.97341 13.2249 5.04964 13.16 5.11327L7.06666 11.7799C7.00509 11.8482 6.93007 11.9029 6.84632 11.9408C6.76257 11.9787 6.6719 11.9988 6.58 11.9999H6.57333Z" fill="white"/>
</g>
<defs>
<clipPath id="clip0_2304_2280">
<rect width="16" height="16" fill="white"/>
</clipPath>
</defs>
</svg>
